X: 37957
T: Spanish Lady
R: polka
M: 2/4
K: Dmajor
|:FA AB/c/|dd de/f/|ge fd|BA A/B/A/G/|
FA AB/c/|dd de/f/|ge fd|BA A2:|
|:fa a/b/a/f/|ed de|fa a/b/a/f/|ae e>g|
fa a/b/a/f/|ed de/f/|ge fd|BA A2:|

